icons/outline/archive-box.svg

<svg width="24" height="24" viewBox="0 0 24 24" fill="none" xmlns="http://www.w3.org/2000/svg">
<path d="M20.25 7.5L19.6246 18.1321C19.5546 19.3214 18.5698 20.25 17.3785 20.25H6.62154C5.43022 20.25 4.44538 19.3214 4.37542 18.1321L3.75 7.5M9.99976 11.25H13.9998M3.375 7.5H20.625C21.2463 7.5 21.75 6.99632 21.75 6.375V4.875C21.75 4.25368 21.2463 3.75 20.625 3.75H3.375C2.75368 3.75 2.25 4.25368 2.25 4.875V6.375C2.25 6.99632 2.75368 7.5 3.375 7.5Z" stroke="#0F172A" stroke-width="1.5" stroke-linecap="round" stroke-linejoin="round"/>
</svg>

<svg xmlns="http://www.w3.org/2000/svg" fill="none" viewBox="0 0 24 24" stroke-width="1.5" stroke="currentColor" aria-hidden="true">
  <path stroke-linecap="round" stroke-linejoin="round" d="M20.25 7.5l-.625 10.632a2.25 2.25 0 01-2.247 2.118H6.622a2.25 2.25 0 01-2.247-2.118L3.75 7.5M10 11.25h4M3.375 7.5h17.25c.621 0 1.125-.504 1.125-1.125v-1.5c0-.621-.504-1.125-1.125-1.125H3.375c-.621 0-1.125.504-1.125 1.125v1.5c0 .621.504 1.125 1.125 1.125z"/>
</svg>
